X:14369
T:Rob Roy. GS.044
M:2/2
L:1/8
Q:200
S:George Spencer m/s, Leeds,1831
R:Reel
O:England
A:Leeds
H:1831
Z:vmp.Cherri Graebe
K:D major
FD A2 FD A2 | FD GB AF E2 | FD A2 FD A2 |1 Bdce dcBA :|2 Bdce d2d2 |!| c
A aa fa ef | cA af fa df
 | bg b2 af a2 | ge fd ec BA |! FA "tr"d2 BG "tr"G2 | Ee e2 cA A2 | FA d
2 GB eg | fd ec "qu's"d2d2 :||
